X:1
T:Pipe Major Robert Martin  "CCPB Sep-1995"
M:C
L:1/8
Q:80
C:R. Abbott
S:March
K:HP
[| {g}f2{ag}ad{g}e3/2f/2{a}ge | \
{Gdc}d2{g}f3/2d/2{G}A2-Ad | \
{gBd}B2{Gdc}d3/2B/2{g}Ad{g}fa |
{ef}e3/2B/2{g}e3/2d/2{g}dc{g}de | \
{g}f2{ag}ad{g}e3/2f/2{a}ge | \
{Gdc}d2{g}f3/2d/2{G}A2-Ad |
{gcd}c{e}A{GAG}A{d}c{g}eg{a}B3/2c/2 | \
{Gdc}d{e}A{g}f3/2e/2{Gdc}d2-d|]
f[ |
{gef}e3/2f/2{a}ge{gcd}c2{e}Ae | \
{g}f/2a3/2{AGAG}A3/2d/2{g}f2-fd | \
{gBd}B2{Gdc}d3/2B/2{g}Ad{g}fa |
{ef}e3/2B/2{g}e3/2d/2{g}dc{g}de | | \
{g}fd{ag}a3/2f/2{g}eg{a}B3/2c/2 | \
{Gdc}d2{g}f3/2d/2{G}A2-Ad |
{gcd}c{e}A{GAG}A{d}c{g}eg{a}B3/2c/2 | \
{Gdc}d{e}A{g}f3/2e/2{Gdc}d2-d|]
